actions/24/object-rotate-right.svg

<?xml version="1.0" encoding="UTF-8" standalone="no"?>
<!-- Created with Inkscape (http://www.inkscape.org/) -->

<svg
   xmlns:svg="http://www.w3.org/2000/svg"
   xmlns="http://www.w3.org/2000/svg"
   xmlns:xlink="http://www.w3.org/1999/xlink"
   version="1.0"
   width="24"
   height="24"
   id="svg3349">
  <defs
     id="defs3351">
    <linearGradient
       id="linearGradient8838">
      <stop
         id="stop8840"
         style="stop-color:black;stop-opacity:1"
         offset="0" />
      <stop
         id="stop8842"
         style="stop-color:black;stop-opacity:0"
         offset="1" />
    </linearGradient>
    <linearGradient
       id="linearGradient3533">
      <stop
         id="stop3535"
         style="stop-color:#c1b0e6;stop-opacity:1"
         offset="0" />
      <stop
         id="stop3545"
         style="stop-color:#9c83d5;stop-opacity:1"
         offset="1" />
    </linearGradient>
    <linearGradient
       id="linearGradient3266">
      <stop
         id="stop3268"
         style="stop-color:#7653c6;stop-opacity:1"
         offset="0" />
      <stop
         id="stop3270"
         style="stop-color:#683fc5;stop-opacity:0"
         offset="1" />
    </linearGradient>
    <linearGradient
       id="linearGradient3276">
      <stop
         id="stop3278"
         style="stop-color:#9c83d5;stop-opacity:1"
         offset="0" />
      <stop
         id="stop3280"
         style="stop-color:#9c83d5;stop-opacity:0"
         offset="1" />
    </linearGradient>
    <linearGradient
       id="linearGradient4873">
      <stop
         id="stop4875"
         style="stop-color:white;stop-opacity:1"
         offset="0" />
      <stop
         id="stop4877"
         style="stop-color:white;stop-opacity:0"
         offset="1" />
    </linearGradient>
    <linearGradient
       id="linearGradient3319">
      <stop
         id="stop3321"
         style="stop-color:white;stop-opacity:0"
         offset="0" />
      <stop
         id="stop3323"
         style="stop-color:white;stop-opacity:0.27472529"
         offset="0.63129705" />
      <stop
         id="stop3325"
         style="stop-color:white;stop-opacity:0"
         offset="1" />
    </linearGradient>
    <radialGradient
       cx="62.625"
       cy="4.625"
       r="10.625"
       fx="62.625"
       fy="4.625"
       id="radialGradient3400"
       xlink:href="#linearGradient8838"
       gradientUnits="userSpaceOnUse"
       gradientTransform="matrix(1,0,0,0.341176,0,3.047059)" />
    <linearGradient
       x1="20.137201"
       y1="4.4757133"
       x2="16.597107"
       y2="17.94278"
       id="linearGradient3402"
       xlink:href="#linearGradient3533"
       gradientUnits="userSpaceOnUse"
       gradientTransform="matrix(0.3446423,-0.3446422,0.3381098,0.3381098,0.1178032,10.322607)" />
    <linearGradient
       x1="31.226292"
       y1="34.600941"
       x2="34.96563"
       y2="26.842505"
       id="linearGradient3404"
       xlink:href="#linearGradient3276"
       gradientUnits="userSpaceOnUse"
       gradientTransform="matrix(0.5097808,0.03067969,-0.03009813,0.5001183,5.2256066,-3.4926097)" />
    <linearGradient
       x1="33.686768"
       y1="35.773647"
       x2="37.039948"
       y2="29.856804"
       id="linearGradient3406"
       xlink:href="#linearGradient3266"
       gradientUnits="userSpaceOnUse"
       gradientTransform="matrix(0.5097808,0.03067969,-0.03009813,0.5001183,5.2256066,-3.4926097)" />
    <linearGradient
       x1="32.325527"
       y1="5.0201149"
       x2="22.245434"
       y2="43.366352"
       id="linearGradient3408"
       xlink:href="#linearGradient4873"
       gradientUnits="userSpaceOnUse"
       gradientTransform="matrix(0.3446423,-0.3446422,0.3381098,0.3381098,0.1178032,10.322607)" />
    <linearGradient
       x1="28.116938"
       y1="41.67448"
       x2="39.686337"
       y2="28.50532"
       id="linearGradient3410"
       xlink:href="#linearGradient3319"
       gradientUnits="userSpaceOnUse"
       gradientTransform="matrix(0.4865175,0.02927958,-0.02872474,0.4772959,5.2842788,-2.0361756)" />
  </defs>
  <g
     id="layer1">
    <g
       transform="translate(-4,3.9988128)"
       id="g3391">
      <path
         d="m 73.25,4.625 a 10.625,3.625 0 1 1 -21.25,0 10.625,3.625 0 1 1 21.25,0 z"
         transform="matrix(1.0352941,0,0,1.2413793,-49.028857,9.759808)"
         id="path8836"
         style="opacity:0.4;fill:url(#radialGradient3400);fill-opacity:1;fill-rule:evenodd;stroke:none;stroke-width:0.99999988;marker:none;visibility:visible;display:inline;overflow:visible" />
      <path
         d="M 16.301845,14.817779 C 15.173117,14.883646 13.442793,14.474646 12.395729,13.427583 10.647896,11.67975 10.236906,7.540427 12.377849,5.4649683 13.244713,4.6246194 15.303356,3.5340581 16.496692,3.501187 l 0.01294,3.0000002 6.097157,-4.8092842 c 0,0 -6.097157,-5.1907165 -6.097157,-5.1907165 l -0.01404,2.82257185 c -2.6301,0.0481384 -5.12131,0.9196431 -7.1190247,2.87467545 C 5.3125823,6.175589 5.3191067,12.595314 9.2015404,16.566649 c 1.9854516,2.030915 4.5861456,2.999155 7.1971016,2.928568"
         id="path3372"
         style="fill:url(#linearGradient3402);fill-opacity:1;stroke:#7653c6;stroke-width:1.00474763;stroke-linecap:butt;stroke-linejoin:round;stroke-miterlimit:4;stroke-opacity:1;stroke-dasharray:none" />
      <path
         d="m 15.945075,19.464053 c 4.743035,0.33688 10.380394,-2.959547 10.746115,-9.178876 l -4.368847,0.575921 c -0.245199,2.531264 -3.879206,4.316315 -6.073699,4.006329"
         id="path3453"
         style="fill:url(#linearGradient3404);fill-opacity:1;stroke:url(#linearGradient3406);stroke-width:1.00474763;stroke-linecap:butt;stroke-linejoin:miter;stroke-miterlimit:4;stroke-opacity:1;stroke-dasharray:none" />
      <path
         d="M 16.308423,15.967233 C 14.861952,15.980137 12.823826,15.25788 11.7204,14.166468 9.1415301,11.612109 9.3111441,6.799345 11.690556,4.6070794 12.69464,3.6819691 14.249773,2.5583333 17.5,2.5583333 l 0,1.926054 3.69258,-2.7924843 c 0,0 -3.69258,-3.1243897 -3.69258,-3.1243897 l 0,1.84405695 C 14.821186,0.29095915 12.022415,0.96257255 10.021559,2.9634285 6.344991,6.639997 6.5515194,12.506687 9.9443421,15.89951 c 2.1478439,2.147843 4.4008239,2.725534 6.4457859,2.572342"
         id="path3370"
         style="opacity:0.4;fill:none;stroke:url(#linearGradient3408);stroke-width:1.00474763;stroke-linecap:butt;stroke-linejoin:miter;stroke-miterlimit:4;stroke-opacity:1;stroke-dasharray:none" />
      <path
         d="m 16.846488,18.344994 c 2.671474,0.166198 8.378405,-2.064466 8.742264,-8.110452 L 24.054468,9.948019 c -0.172372,2.864145 -4.279879,5.985829 -7.386421,6.051772"
         id="path2557"
         style="fill:none;stroke:url(#linearGradient3410);stroke-width:1.00474763;stroke-linecap:butt;stroke-linejoin:round;stroke-miterlimit:4;stroke-opacity:1;stroke-dasharray:none" />
      <rect
         width="3.708703"
         height="1.2285279"
         x="14.728326"
         y="16.385416"
         id="rect3290"
         style="fill:#9c83d5;fill-opacity:1;stroke:none" />
      <path
         d="m 13.751634,13.915468 a 1.1787115,1.1787115 0 1 1 -2.357423,0 1.1787115,1.1787115 0 1 1 2.357423,0 z"
         transform="translate(3.9122268,-4.0929927)"
         id="path3347"
         style="fill:#a58ed9;fill-opacity:1;stroke:#7653c6;stroke-width:1;stroke-linecap:round;stroke-linejoin:round;stroke-miterlimit:4;stroke-opacity:1;stroke-dasharray:none;stroke-dashoffset:0" />
    </g>
  </g>
</svg>

<?xml version="1.0" encoding="UTF-8" standalone="no"?>
<!-- Created with Inkscape (http://www.inkscape.org/) -->
<svg
   xmlns:svg="http://www.w3.org/2000/svg"
   xmlns="http://www.w3.org/2000/svg"
   xmlns:xlink="http://www.w3.org/1999/xlink"
   version="1.0"
   width="24"
   height="24"
   id="svg3349">
  <defs
     id="defs3351">
    <linearGradient
       id="linearGradient3319-940">
      <stop
         id="stop2623"
         style="stop-color:#ffffff;stop-opacity:0"
         offset="0" />
      <stop
         id="stop2625"
         style="stop-color:#ffffff;stop-opacity:0.27472529"
         offset="0.63129705" />
      <stop
         id="stop2627"
         style="stop-color:#ffffff;stop-opacity:0"
         offset="1" />
    </linearGradient>
    <linearGradient
       x1="28.116938"
       y1="41.67448"
       x2="39.686337"
       y2="28.50532"
       id="linearGradient2494-614"
       xlink:href="#linearGradient3319-940"
       gradientUnits="userSpaceOnUse"
       gradientTransform="matrix(0.4865175,2.9279582e-2,-2.8724737e-2,0.4772959,1.2842788,1.9626372)" />
    <linearGradient
       id="linearGradient2508-60">
      <stop
         id="stop2599"
         style="stop-color:#ce81bd;stop-opacity:1"
         offset="0" />
      <stop
         id="stop2601"
         style="stop-color:#a452a9;stop-opacity:1"
         offset="1" />
    </linearGradient>
    <linearGradient
       x1="20.137201"
       y1="4.4757133"
       x2="16.597107"
       y2="17.94278"
       id="linearGradient2505-174"
       xlink:href="#linearGradient2508-60"
       gradientUnits="userSpaceOnUse"
       gradientTransform="matrix(0.3446423,-0.3446422,0.3381098,0.3381098,-3.8821968,14.32142)" />
    <radialGradient
       cx="62.625"
       cy="4.625"
       r="10.625"
       fx="62.625"
       fy="4.625"
       id="radialGradient3400-552"
       xlink:href="#linearGradient8838-634"
       gradientUnits="userSpaceOnUse"
       gradientTransform="matrix(1,0,0,0.341176,0,3.047059)" />
    <linearGradient
       id="linearGradient8838-634">
      <stop
         id="stop2746"
         style="stop-color:#000000;stop-opacity:1"
         offset="0" />
      <stop
         id="stop2748"
         style="stop-color:#000000;stop-opacity:0"
         offset="1" />
    </linearGradient>
    <linearGradient
       x1="20.137201"
       y1="4.4757133"
       x2="16.597107"
       y2="17.94278"
       id="linearGradient3402-693"
       xlink:href="#linearGradient3533-867"
       gradientUnits="userSpaceOnUse"
       gradientTransform="matrix(0.3446423,-0.3446422,0.3381098,0.3381098,0.1178032,10.322607)" />
    <linearGradient
       id="linearGradient3533-867">
      <stop
         id="stop2752"
         style="stop-color:#d1b0e6;stop-opacity:1"
         offset="0" />
      <stop
         id="stop2754"
         style="stop-color:#b483d5;stop-opacity:1"
         offset="1" />
    </linearGradient>
    <linearGradient
       x1="31.226292"
       y1="34.600941"
       x2="34.96563"
       y2="26.842505"
       id="linearGradient3404-708"
       xlink:href="#linearGradient3276-54"
       gradientUnits="userSpaceOnUse"
       gradientTransform="matrix(0.5097808,3.0679686e-2,-3.0098127e-2,0.5001183,5.2256066,-3.4926097)" />
    <linearGradient
       id="linearGradient3276-54">
      <stop
         id="stop2758"
         style="stop-color:#b483d5;stop-opacity:1"
         offset="0" />
      <stop
         id="stop2760"
         style="stop-color:#b483d5;stop-opacity:0"
         offset="1" />
    </linearGradient>
    <linearGradient
       x1="33.686768"
       y1="35.773647"
       x2="37.039948"
       y2="29.856804"
       id="linearGradient3406-498"
       xlink:href="#linearGradient3266-587"
       gradientUnits="userSpaceOnUse"
       gradientTransform="matrix(0.5097808,3.0679686e-2,-3.0098127e-2,0.5001183,5.2256066,-3.4926097)" />
    <linearGradient
       id="linearGradient3266-587">
      <stop
         id="stop2764"
         style="stop-color:#9853c6;stop-opacity:1"
         offset="0" />
      <stop
         id="stop2766"
         style="stop-color:#903fc4;stop-opacity:0"
         offset="1" />
    </linearGradient>
    <linearGradient
       x1="32.325527"
       y1="5.0201149"
       x2="22.245434"
       y2="43.366352"
       id="linearGradient3408-109"
       xlink:href="#linearGradient4873-523"
       gradientUnits="userSpaceOnUse"
       gradientTransform="matrix(0.3446423,-0.3446422,0.3381098,0.3381098,0.1178032,10.322607)" />
    <linearGradient
       id="linearGradient4873-523">
      <stop
         id="stop2770"
         style="stop-color:#ffffff;stop-opacity:1"
         offset="0" />
      <stop
         id="stop2772"
         style="stop-color:#ffffff;stop-opacity:0"
         offset="1" />
    </linearGradient>
    <linearGradient
       x1="28.116938"
       y1="41.67448"
       x2="39.686337"
       y2="28.50532"
       id="linearGradient3410-460"
       xlink:href="#linearGradient3319-458"
       gradientUnits="userSpaceOnUse"
       gradientTransform="matrix(0.4865175,2.9279582e-2,-2.8724737e-2,0.4772959,5.2842788,-2.0361756)" />
    <linearGradient
       id="linearGradient3319-458">
      <stop
         id="stop2776"
         style="stop-color:#ffffff;stop-opacity:0"
         offset="0" />
      <stop
         id="stop2778"
         style="stop-color:#ffffff;stop-opacity:0.27472529"
         offset="0.63129705" />
      <stop
         id="stop2780"
         style="stop-color:#ffffff;stop-opacity:0"
         offset="1" />
    </linearGradient>
  </defs>
  <g
     id="layer1">
    <g
       transform="translate(-4,3.9988128)"
       id="g3391">
      <path
         d="M 73.25,4.625 A 10.625,3.625 0 1 1 52,4.625 A 10.625,3.625 0 1 1 73.25,4.625 z"
         transform="matrix(1.0352941,0,0,1.2413793,-49.028857,9.759808)"
         id="path8836"
         style="opacity:0.4;fill:url(#radialGradient3400-552);fill-opacity:1;fill-rule:evenodd;stroke:none;stroke-width:0.99999988;stroke-linecap:butt;stroke-linejoin:round;marker:none;marker-start:none;marker-mid:none;marker-end:none;stroke-miterlimit:4;stroke-dasharray:none;stroke-dashoffset:0;stroke-opacity:1;visibility:visible;display:inline;overflow:visible" />
      <path
         d="M 16.301845,14.817779 C 15.173117,14.883646 13.442793,14.474646 12.395729,13.427583 C 10.647896,11.67975 10.236906,7.540427 12.377849,5.4649683 C 13.244713,4.6246194 15.303356,3.5340581 16.496692,3.501187 L 16.509636,6.5011872 L 22.606793,1.691903 C 22.606793,1.691903 16.509636,-3.4988135 16.509636,-3.4988135 L 16.495596,-0.67624165 C 13.865492,-0.62810325 11.374282,0.24340145 9.3765673,2.1984338 C 5.3125823,6.175589 5.3191067,12.595314 9.2015404,16.566649 C 11.186992,18.597564 13.787686,19.565804 16.398642,19.495217"
         id="path3372"
         style="fill:url(#linearGradient3402-693);fill-opacity:1;stroke:#9853c6;stroke-width:1.00474763;stroke-linecap:butt;stroke-linejoin:round;stroke-miterlimit:4;stroke-dasharray:none;stroke-opacity:1" />
      <path
         d="M 15.945075,19.464053 C 20.68811,19.800933 26.325469,16.504506 26.69119,10.285177 L 22.322343,10.861098 C 22.077144,13.392362 18.443137,15.177413 16.248644,14.867427"
         id="path3453"
         style="fill:url(#linearGradient3404-708);fill-opacity:1;stroke:url(#linearGradient3406-498);stroke-width:1.00474763;stroke-linecap:butt;stroke-linejoin:miter;stroke-miterlimit:4;stroke-dasharray:none;stroke-opacity:1" />
      <path
         d="M 16.308423,15.967233 C 14.861952,15.980137 12.823826,15.25788 11.7204,14.166468 C 9.1415301,11.612109 9.3111441,6.799345 11.690556,4.6070794 C 12.69464,3.6819691 14.249773,2.5583333 17.5,2.5583333 L 17.5,4.4843873 L 21.19258,1.691903 C 21.19258,1.691903 17.5,-1.4324867 17.5,-1.4324867 L 17.5,0.41157025 C 14.821186,0.29095915 12.022415,0.96257255 10.021559,2.9634285 C 6.344991,6.639997 6.5515194,12.506687 9.9443421,15.89951 C 12.092186,18.047353 14.345166,18.625044 16.390128,18.471852"
         id="path3370"
         style="opacity:0.4;fill:none;fill-opacity:1;stroke:url(#linearGradient3408-109);stroke-width:1.00474763;stroke-linecap:butt;stroke-linejoin:miter;stroke-miterlimit:4;stroke-dasharray:none;stroke-opacity:1" />
      <path
         d="M 16.846488,18.344994 C 19.517962,18.511192 25.224893,16.280528 25.588752,10.234542 L 24.054468,9.948019 C 23.882096,12.812164 19.774589,15.933848 16.668047,15.999791"
         id="path2557"
         style="fill:none;fill-opacity:1;stroke:url(#linearGradient3410-460);stroke-width:1.00474763;stroke-linecap:butt;stroke-linejoin:round;stroke-miterlimit:4;stroke-dasharray:none;stroke-opacity:1" />
      <rect
         width="3.708703"
         height="1.2285279"
         x="14.728326"
         y="16.385416"
         id="rect3290"
         style="opacity:1;fill:#b483d5;fill-opacity:1;stroke:none;stroke-width:1;stroke-linecap:butt;stroke-linejoin:miter;stroke-miterlimit:4;stroke-dasharray:none;stroke-dashoffset:0;stroke-opacity:1" />
      <path
         d="M 13.751634,13.915468 A 1.1787115,1.1787115 0 1 1 11.394211,13.915468 A 1.1787115,1.1787115 0 1 1 13.751634,13.915468 z"
         transform="translate(3.9122268,-4.0929927)"
         id="path3347"
         style="opacity:1;fill:#bb8dd9;fill-opacity:1;stroke:#9853c6;stroke-width:1;stroke-linecap:round;stroke-linejoin:round;stroke-miterlimit:4;stroke-dasharray:none;stroke-dashoffset:0;stroke-opacity:1" />
    </g>
  </g>
</svg>
